X:1
T:Sandy
B:Singing Together, Autumn 1985, BBC Publications
F:http://www.folkinfo.org/songs
M:3/4     %Meter
L:1/8     %
K:F
C2 |F2 F2 F2 |A2 A2 A2 |G2 F2 G2 | F4
w:There was an old fel-low named San-dy Mc Nab,
 F2 |A2 A2 A2 |c2 c2 c2 |B2 A2 B2 | A4
w:Who had for his sup-per a ve-ry fine crab,
A2 |C2 C2 C2 |C4 C2 |C2 C2 C2 | F4 z2 |
w:And had to be car-ried home in a cab
z6 |z6 |z6 |z6 |z6 |z6 |z6  |z6 |]
V:2     %
M:3/4     %Meter
L:1/8     %
K:F
z2 |z6 |z6 |z6 |z4 C2 |F2 F2 F2 |A2 A2 A2 |G2 F2 G2 |F4 F2 |A2 A2 A2 |c2 c2 c2 |B2 A2 B2 |A4 A2 |C2 C2 C2 |C4 C2 |C2 C2 C2 |F4 z2 |]
V:3     %
M:3/4     %Meter
L:1/8     %
K:F
z2 |z6 |z6 |z6 |z6 |z6 |z6 |z6 |z4 C2 |F2 F2 F2 |A2 A2 A2 |G2 F2 G2 |F4 F2 |A2 A2 A2 |c2 c2 c2 |B2 A2 B2 |A4 A2 |C2 C2 C2 |C4 C2 |C2 C2 C2 |F4 z2 |]
